priv/static/images/tools/git.svg

<svg
  width="128"
  height="128"
  viewBox="0 0 128 128"
  fill="none"
  xmlns="http://www.w3.org/2000/svg"
>
  <path
    d="M124.737 58.3778L69.621 3.2638C66.449 0.0898008 61.301 0.0898008 58.124 3.2638L46.68 14.7098L61.198 29.2278C64.573 28.0888 68.441 28.8528 71.13 31.5418C73.833 34.2478 74.591 38.1488 73.424 41.5348L87.416 55.5278C90.801 54.3608 94.708 55.1148 97.41 57.8228C101.19 61.5998 101.19 67.7228 97.41 71.5018C96.5117 72.4005 95.4452 73.1134 94.2713 73.5999C93.0974 74.0863 91.8392 74.3366 90.5685 74.3366C89.2978 74.3366 88.0396 74.0863 86.8657 73.5999C85.6918 73.1134 84.6253 72.4005 83.727 71.5018C82.3774 70.1514 81.4574 68.4319 81.0829 66.5598C80.7083 64.6876 80.8959 62.7465 81.622 60.9808L68.574 47.9328L68.572 82.2738C69.5187 82.74 70.383 83.3574 71.131 84.1018C74.909 87.8788 74.909 93.9998 71.131 97.7848C67.352 101.562 61.227 101.562 57.452 97.7848C53.674 94.0008 53.674 87.8798 57.452 84.1018C58.3572 83.1952 59.4338 82.4779 60.619 81.9918V47.3328C59.4328 46.848 58.3559 46.1302 57.452 45.2218C54.59 42.3618 53.901 38.1618 55.369 34.6458L41.056 20.3328L3.26401 58.1228C1.73933 59.648 0.882812 61.7162 0.882812 63.8728C0.882813 66.0294 1.73933 68.0976 3.26401 69.6228L58.381 124.737C61.555 127.911 66.701 127.911 69.88 124.737L124.738 69.8788C126.262 68.3532 127.119 66.2847 127.118 64.1281C127.118 61.9715 126.262 59.9031 124.737 58.3778Z"
    fill="#F34F29"
  />
</svg>

<svg xmlns="http://www.w3.org/2000/svg" width="128" height="128" fill="none"><path fill="#F34F29" d="M124.737 58.378 69.621 3.264c-3.172-3.174-8.32-3.174-11.497 0L46.68 14.71l14.518 14.518c3.375-1.14 7.243-.375 9.932 2.314 2.703 2.706 3.461 6.607 2.294 9.993l13.992 13.993c3.385-1.167 7.292-.413 9.994 2.295 3.78 3.777 3.78 9.9 0 13.679A9.675 9.675 0 0 1 81.622 60.98L68.574 47.933l-.002 34.34a9.7 9.7 0 0 1 2.559 1.829c3.778 3.777 3.778 9.898 0 13.683-3.779 3.777-9.904 3.777-13.679 0-3.778-3.784-3.778-9.905 0-13.683a9.7 9.7 0 0 1 3.167-2.11v-34.66a9.6 9.6 0 0 1-3.167-2.11c-2.862-2.86-3.551-7.06-2.083-10.576L41.056 20.333 3.264 58.123a8.133 8.133 0 0 0 0 11.5l55.117 55.114c3.174 3.174 8.32 3.174 11.499 0l54.858-54.858a8.133 8.133 0 0 0-.001-11.501"/></svg>
